!!!COM: Manuel de Falla (y Matheu)
!!!OTL: [T320_Fal-w8p55m6-1h58m1-2]
**kern	**dynam	**kern	**dynam	**kern	**dynam	**kern	**dynam	**kern	**dynam	**kern	**dynam	**text	**kern	**dynam	**kern	**dynam	**kern	**dynam
*grp:A	*grp:A	*grp:A	*grp:A	*grp:B	*grp:B	*grp:B	*grp:B	*grp:B	*grp:B	*grp:B	*grp:B	*grp:B	*grp:A	*grp:A	*grp:B	*grp:B	*grp:B	*grp:B
*part9	*	*part8	*	*part7	*	*part6	*	*part5	*	*part4	*	*part4	*part3	*	*part2	*	*part1	*
*staff9	*	*staff8	*	*staff7	*	*staff6	*	*staff5	*	*staff4	*	*staff4	*staff3	*	*staff2	*	*staff1	*
*I"Contrabass	*	*I"Violoncello	*	*I"Viola	*	*I"Violin II	*	*I"Violin I	*	*I"Voice	*	*	*I"Timpani	*	*I"Trumpet in C	*	*I"2 Horns in F	*
*I'Cb.	*	*I'Vc.	*	*I'Vla.	*	*I'Vln. II	*	*I'Vln. I	*	*I'Tr. Solo	*	*	*I'Timp.	*	*I'C Tpt.	*	*I'Hn.	*
!!pagebreak:original
*clefF4	*	*clefF4	*	*clefC3	*	*clefG2	*	*clefG2	*	*clefG2	*	*	*clefF4	*	*clefG2	*	*clefG2	*
*ITrd7c12	*	*	*	*	*	*	*	*	*	*	*	*	*	*	*	*	*ITrd4c7	*
*k[b-e-a-]	*	*k[b-e-a-]	*	*k[b-e-a-]	*	*k[b-e-a-]	*	*k[b-e-a-]	*	*k[b-e-a-]	*	*	*k[]	*	*k[]	*	*k[b-]	*
*E-:	*	*E-:	*	*E-:	*	*E-:	*	*E-:	*	*E-:	*	*	*C:	*	*E-:	*	*F:	*
*M6/8	*	*M6/8	*	*M6/8	*	*M6/8	*	*M6/8	*	*M6/8	*	*	*M6/8	*	*M6/8	*	*M6/8	*
=1	=1	=1	=1	=1	=1	=1	=1	=1	=1	=1	=1	=1	=1	=1	=1	=1	=1	=1
*	*	*	*	*^	*	*^	*	*^	*	*	*	*	*	*	*	*	*	*
!	!	!	!	!	!	!	!	!	!	!	!	!	!	!	!	!	!	!	!	!LO:TX:t=[quarter]=168	!
!	!LO:DY:ed=brack	!	!LO:DY:ed=brack	!	!	!LO:DY:ed=brack	!	!	!LO:DY:ed=brack	!	!	!LO:DY:ed=brack	!LO:TX:a:t=[semplicemente, con voce tranquilla]	!LO:DY:ed=brack	!	!LO:TX:a:t=[marcato, hard sticks]	!LO:DY:ed=brack	!LO:TX:a:t=[marc., solo]	!LO:DY:ed=brack	!LO:TX:a:t=[soli, dolce marc. (lontano)]	!LO:DY:ed=brack
8GGG'	ppp	8GG'	ppp	[2.B-	[2.E-	ppp	[2.b-	2.r	ppp	[2.ee-	[2.e-	ppp	2.b-	mp	 -sen-	8GG	p	([4.B-X	p	([4.G [4.e-X	p
8r	.	8r	.	.	.	.	.	.	.	.	.	.	.	.	.	8r	.	.	.	.	.
8GGG'	.	8GG'	.	.	.	.	.	.	.	.	.	.	.	.	.	8GG	.	.	.	.	.
8r	.	8r	.	.	.	.	.	.	.	.	.	.	.	.	.	8r	.	8.B-L]	.	8.GL] 8.e-]	.
8GGG'	.	8GG'	.	.	.	.	.	.	.	.	.	.	.	.	.	8GG	.	.	.	.	.
.	.	.	.	.	.	.	.	.	.	.	.	.	.	.	.	.	.	8.A-XJ	.	8.B-J 8.f	.
8r	.	8r	.	.	.	.	.	.	.	.	.	.	.	.	.	8r	.	.	.	.	.
=2	=2	=2	=2	=2	=2	=2	=2	=2	=2	=2	=2	=2	=2	=2	=2	=2	=2	=2	=2	=2	=2
8GGG'	.	8GG'	.	2.B-_	2.E-_	.	2.b-_	2.r	.	2.ee-_	2.e-_	.	[2.b-	.	-dra,	8GG	.	4.B-X	.	4.G 4.e-X)	.
8r	.	8r	.	.	.	.	.	.	.	.	.	.	.	.	.	8r	.	.	.	.	.
8GGG'	.	8GG'	.	.	.	.	.	.	.	.	.	.	.	.	.	8GG	.	.	.	.	.
8r	.	8r	.	.	.	.	.	.	.	.	.	.	.	.	.	8r	.	4.A-X	.	(>4.F 4.B-	.
8GGG'	.	8GG'	.	.	.	.	.	.	.	.	.	.	.	.	.	8GG	.	.	.	.	.
8r	.	8r	.	.	.	.	.	.	.	.	.	.	.	.	.	8r	.	.	.	.	.
=3	=3	=3	=3	=3	=3	=3	=3	=3	=3	=3	=3	=3	=3	=3	=3	=3	=3	=3	=3	=3	=3
8GGG'	.	8GG'	.	2.B-_	2.E-_	.	2.b-_	2.r	.	2.ee-_	2.e-_	.	4b-]	.	.	8GG	.	[2.B-X)	.	[2.G [2.e-X)	.
8r	.	8r	.	.	.	.	.	.	.	.	.	.	.	.	.	8r	.	.	.	.	.
8GGG'	.	8GG'	.	.	.	.	.	.	.	.	.	.	8r	.	.	8GG	.	.	.	.	.
8r	.	8r	.	.	.	.	.	.	.	.	.	.	4.g	.	que	8r	.	.	.	.	.
8GGG'	.	8GG'	.	.	.	.	.	.	.	.	.	.	.	.	.	8GG	.	.	.	.	.
8r	.	8r	.	.	.	.	.	.	.	.	.	.	.	.	.	8r	.	.	.	.	.
=4	=4	=4	=4	=4	=4	=4	=4	=4	=4	=4	=4	=4	=4	=4	=4	=4	=4	=4	=4	=4	=4
8GGG'	.	8GG'	.	2.B-]	2.E-]	.	2.b-]	2.r	.	2.ee-]	2.e-]	.	2b-	.	ya	8GG	.	2.B-X_	.	2.G_ 2.e-_	.
8r	.	8r	.	.	.	.	.	.	.	.	.	.	.	.	.	8r	.	.	.	.	.
8GGG'	.	8GG'	.	.	.	.	.	.	.	.	.	.	.	.	.	8GG	.	.	.	.	.
8r	.	8r	.	.	.	.	.	.	.	.	.	.	.	.	.	8r	.	.	.	.	.
8GGG'	.	8GG'	.	.	.	.	.	.	.	.	.	.	4cc	.	ven-	8GG	.	.	.	.	.
8r	.	8r	.	.	.	.	.	.	.	.	.	.	.	.	.	8r	.	.	.	.	.
=5	=5	=5	=5	=5	=5	=5	=5	=5	=5	=5	=5	=5	=5	=5	=5	=5	=5	=5	=5	=5	=5
8GGG'	.	8GG'	.	[2.B-	[2.E-	.	[2.b-	2.r	.	[2.ee-	[2.e-	.	4.b-	.	-ga-	8GG	.	2.B-X_	.	2.G_ 2.e-_	.
8r	.	8r	.	.	.	.	.	.	.	.	.	.	.	.	.	8r	.	.	.	.	.
8GGG'	.	8GG'	.	.	.	.	.	.	.	.	.	.	.	.	.	8GG	.	.	.	.	.
8r	.	8r	.	.	.	.	.	.	.	.	.	.	4.b-	.	-da	8r	.	.	.	.	.
8GGG'	.	8GG'	.	.	.	.	.	.	.	.	.	.	.	.	.	8GG	.	.	.	.	.
8r	.	8r	.	.	.	.	.	.	.	.	.	.	.	.	.	8r	.	.	.	.	.
=6	=6	=6	=6	=6	=6	=6	=6	=6	=6	=6	=6	=6	=6	=6	=6	=6	=6	=6	=6	=6	=6
8GGG'	.	8GG'	.	2.B-_	2.E-_	.	2.b-_	2.r	.	2.ee-_	2.e-_	.	8.b-	.	del	8GG	.	2.B-X]	.	2.G] 2.e-]	.
8r	.	8r	.	.	.	.	.	.	.	.	.	.	.	.	.	8r	.	.	.	.	.
.	.	.	.	.	.	.	.	.	.	.	.	.	8.b-	.	a-	.	.	.	.	.	.
8GGG'	.	8GG'	.	.	.	.	.	.	.	.	.	.	.	.	.	8GG	.	.	.	.	.
8r	.	8r	.	.	.	.	.	.	.	.	.	.	8.b-	.	-tre-	8r	.	.	.	.	.
8GGG'	.	8GG'	.	.	.	.	.	.	.	.	.	.	.	.	.	8GG	.	.	.	.	.
.	.	.	.	.	.	.	.	.	.	.	.	.	8.b-	.	-vi-	.	.	.	.	.	.
8r	.	8r	.	.	.	.	.	.	.	.	.	.	.	.	.	8r	.	.	.	.	.
!!LO:REH:t=58
=7	=7	=7	=7	=7	=7	=7	=7	=7	=7	=7	=7	=7	=7	=7	=7	=7	=7	=7	=7	=7	=7
8GGG'	.	8GG'	.	2.B-_	2.E-_	.	2.b-_	2.r	.	2.ee-_	2.e-_	.	8.b-	.	-mien-	8GG	.	4.r	.	4.r	.
8r	.	8r	.	.	.	.	.	.	.	.	.	.	.	.	.	8r	.	.	.	.	.
.	.	.	.	.	.	.	.	.	.	.	.	.	8.b-	.	-to	.	.	.	.	.	.
8GGG'	.	8GG'	.	.	.	.	.	.	.	.	.	.	.	.	.	8GG	.	.	.	.	.
8r	.	8r	.	.	.	.	.	.	.	.	.	.	8.b-	.	del	8r	.	(4.e-X	.	(4.B- 4.g	.
8GGG'	.	8GG'	.	.	.	.	.	.	.	.	.	.	.	.	.	8GG	.	.	.	.	.
.	.	.	.	.	.	.	.	.	.	.	.	.	8.b-	.	en-	.	.	.	.	.	.
8r	.	8r	.	.	.	.	.	.	.	.	.	.	.	.	.	8r	.	.	.	.	.
=8	=8	=8	=8	=8	=8	=8	=8	=8	=8	=8	=8	=8	=8	=8	=8	=8	=8	=8	=8	=8	=8
8GGG'	.	8GG'	.	2.B-_	2.E-_	.	2.b-_	2.r	.	2.ee-_	2.e-_	.	8.b-	.	-a-	8GG	.	4.B-X	.	2G 2e-X	.
8r	.	8r	.	.	.	.	.	.	.	.	.	.	.	.	.	8r	.	.	.	.	.
.	.	.	.	.	.	.	.	.	.	.	.	.	8.b-	.	-mo-	.	.	.	.	.	.
8GGG'	.	8GG'	.	.	.	.	.	.	.	.	.	.	.	.	.	8GG	.	.	.	.	.
8r	.	8r	.	.	.	.	.	.	.	.	.	.	8.b-	.	-ra-	8r	.	4.e-X)	.	.	.
8GGG'	.	8GG'	.	.	.	.	.	.	.	.	.	.	.	.	.	8GG	.	.	.	4B- 4f)	.
.	.	.	.	.	.	.	.	.	.	.	.	.	8.b-	.	-do	.	.	.	.	.	.
8r	.	8r	.	.	.	.	.	.	.	.	.	.	.	.	.	8r	.	.	.	.	.
*	*	*	*	*v	*v	*	*	*	*	*v	*v	*	*	*	*	*	*	*	*	*	*
*	*	*	*	*	*	*v	*v	*	*	*	*	*	*	*	*	*	*	*	*
=	=	=	=	=	=	=	=	=	=	=	=	=	=	=	=	=	=	=
*-	*-	*-	*-	*-	*-	*-	*-	*-	*-	*-	*-	*-	*-	*-	*-	*-	*-	*-
!!!system-decoration: [(s1,s2)][(s3)]s4[(s5,s6,s7,s8,s9)]
!!!RDF**kern: > = above
!!!RDF**kern: < = below
